alura/assets/api/cursos/technical-writing-crie-documentacao-zero-ddlc.svg

<svg width="50" height="50" viewBox="0 0 50 50" fill="none" xmlns="http://www.w3.org/2000/svg">
<path d="M44.9001 12.5L39.3001 8.89995L31.6001 4.49995L25.6001 1.69995C22.4001 1.69995 4.1001 10.6 4.1001 13.8L3.6001 21.6L4.1001 36.7L15.6001 44.2999L46.6001 33.2999C47.4001 32.7999 45.9001 14.5 44.9001 12.5Z" fill="#E589EF"/>
<path d="M30.1001 46.4999L27.9001 47.7999C26.2001 48.7999 24.1001 48.7999 22.4001 47.7999L6.8001 38.7999C5.1001 37.7999 4.1001 35.9999 4.1001 34.0999V16.0999C4.1001 14.0999 5.1001 12.2999 6.8001 11.3999L22.4001 2.3999C24.1001 1.3999 26.2001 1.3999 27.9001 2.3999L43.5001 11.3999C45.2001 12.3999 46.2001 14.1999 46.2001 16.0999V34.0999C46.2001 36.0999 45.2001 37.8999 43.5001 38.7999L41.0001 40.1999" stroke="#444444" stroke-width="2.5" stroke-miterlimit="10" stroke-linecap="round" stroke-linejoin="round"/>
<path d="M45.9 16.7998V22.8998C45.9 23.4998 45.7 23.9998 45.3 24.4998L31.8 39.5998C31.2 40.2998 30.3 40.4998 29.4 40.2998L12 35.1998C11.7 35.0998 11.4 34.8998 11.1 34.6998C9.69999 33.4998 7.29999 27.8998 9.69999 23.6998" stroke="#444444" stroke-miterlimit="10" stroke-linecap="round" stroke-linejoin="round"/>
<path d="M43.7999 18.7998L30.6999 33.2998C29.9999 34.0998 28.8999 34.3998 27.8999 34.0998L11.3999 28.9998" stroke="#444444" stroke-width="0.5" stroke-miterlimit="10" stroke-linecap="round" stroke-linejoin="round"/>
<path d="M43.8 22.3999L30.7 36.8999C30 37.6999 29 37.7999 28 37.4999L11.5 32.3999" stroke="#444444" stroke-width="0.5" stroke-miterlimit="10" stroke-linecap="round" stroke-linejoin="round"/>
<path d="M43.5 11.2999L25.6 6.9999C24.9 6.7999 24.1 7.0999 23.6 7.5999L9.09999 23.2999C8.09999 24.3999 8.59999 26.1999 9.99999 26.5999L27.7 31.7999C28.5 31.9999 29.3 31.7999 29.8 31.1999L44.5 14.5999C45.6 13.4999 45 11.6999 43.5 11.2999ZM20.3 18.2999C20.1 18.2999 19.9 18.0999 19.9 17.8999C19.9 17.6999 20 17.3999 20.3 17.3999L23.9 16.7999L20.9 13.9999C20.7 13.7999 20.7 13.4999 20.9 13.3999C21.1 13.1999 21.4 13.1999 21.5 13.3999L25 16.8999C25.1 16.9999 25.2 17.1999 25.1 17.2999C25 17.4999 24.9 17.5999 24.7 17.5999L20.3 18.2999ZM25.3 20.2999C25.2 20.3999 25.1 20.3999 25 20.3999C24.9 20.3999 24.8 20.3999 24.7 20.2999C24.5 20.0999 24.5 19.7999 24.7 19.6999L28.7 15.7999C28.9 15.5999 29.2 15.5999 29.3 15.7999C29.5 15.9999 29.5 16.2999 29.3 16.3999L25.3 20.2999ZM33.6 18.8999L30 19.3999L32.9 22.2999C33.1 22.4999 33.1 22.7999 32.9 22.8999C32.8 22.9999 32.7 22.9999 32.6 22.9999C32.5 22.9999 32.4 22.9999 32.3 22.8999L28.8 19.3999C28.7 19.2999 28.6 19.0999 28.7 18.9999C28.8 18.7999 28.9 18.6999 29.1 18.6999L33.5 17.9999C33.7 17.9999 34 18.0999 34 18.3999C34 18.5999 33.8 18.7999 33.6 18.8999Z" fill="#444444"/>
</svg>

<svg xmlns="http://www.w3.org/2000/svg" fill="none" viewBox="0 0 50 50"><path fill="#E589EF" d="M44.9 12.5l-5.6-3.6-7.7-4.4-6-2.8c-3.2 0-21.5 8.9-21.5 12.1l-.5 7.8.5 15.1 11.5 7.6 31-11c.8-.5-.7-18.8-1.7-20.8z"/><path stroke="#444" stroke-linecap="round" stroke-linejoin="round" stroke-miterlimit="10" stroke-width="2.5" d="M30.1 46.5l-2.2 1.3c-1.7 1-3.8 1-5.5 0l-15.6-9c-1.7-1-2.7-2.8-2.7-4.7v-18c0-2 1-3.8 2.7-4.7l15.6-9c1.7-1 3.8-1 5.5 0l15.6 9c1.7 1 2.7 2.8 2.7 4.7v18c0 2-1 3.8-2.7 4.7L41 40.2"/><path stroke="#444" stroke-linecap="round" stroke-linejoin="round" stroke-miterlimit="10" d="M45.9 16.8v6.1c0 .6-.2 1.1-.6 1.6L31.8 39.6c-.6.7-1.5.9-2.4.7L12 35.2c-.3-.1-.6-.3-.9-.5-1.4-1.2-3.8-6.8-1.4-11"/><path stroke="#444" stroke-linecap="round" stroke-linejoin="round" stroke-miterlimit="10" stroke-width=".5" d="M43.8 18.8L30.7 33.3c-.7.8-1.8 1.1-2.8.8L11.4 29"/><path stroke="#444" stroke-linecap="round" stroke-linejoin="round" stroke-miterlimit="10" stroke-width=".5" d="M43.8 22.4L30.7 36.9c-.7.8-1.7.9-2.7.6l-16.5-5.1"/><path fill="#444" d="M43.5 11.3L25.6 7c-.7-.2-1.5.1-2 .6L9.1 23.3c-1 1.1-.5 2.9.9 3.3l17.7 5.2c.8.2 1.6 0 2.1-.6l14.7-16.6c1.1-1.1.5-2.9-1-3.3zm-23.2 7c-.2 0-.4-.2-.4-.4s.1-.5.4-.5l3.6-.6-3-2.8c-.2-.2-.2-.5 0-.6.2-.2.5-.2.6 0l3.5 3.5c.1.1.2.3.1.4-.1.2-.2.3-.4.3l-4.4.7zm5 2c-.1.1-.2.1-.3.1-.1 0-.2 0-.3-.1-.2-.2-.2-.5 0-.6l4-3.9c.2-.2.5-.2.6 0 .2.2.2.5 0 .6l-4 3.9zm8.3-1.4l-3.6.5 2.9 2.9c.2.2.2.5 0 .6-.1.1-.2.1-.3.1-.1 0-.2 0-.3-.1l-3.5-3.5c-.1-.1-.2-.3-.1-.4.1-.2.2-.3.4-.3l4.4-.7c.2 0 .5.1.5.4 0 .2-.2.4-.4.5z"/></svg>
